svgs/duotone/square-user.svg

<svg xmlns="http://www.w3.org/2000/svg" viewBox="0 0 448 512"><!-- Font Awesome Pro 6.0.0-alpha2 by @fontawesome - https://fontawesome.com License - https://fontawesome.com/license (Commercial License) --><defs><style>.fa-secondary{opacity:.4}</style></defs><path d="M384 32H64C28.654 32 0 60.652 0 96V416C0 451.346 28.654 480 64 480H384C419.346 480 448 451.346 448 416V96C448 60.652 419.346 32 384 32ZM224 128C263.766 128 296 160.234 296 200C296 239.764 263.766 272 224 272C184.236 272 152 239.764 152 200C152 160.234 184.236 128 224 128ZM81.613 416C89.438 361.791 135.625 320 192 320H256C312.375 320 358.562 361.791 366.387 416H81.613Z" class="fa-secondary"/><path d="M224.387 272C264.152 272 296.387 239.764 296.387 200C296.387 160.234 264.152 128 224.387 128C184.623 128 152.387 160.234 152.387 200C152.387 239.764 184.623 272 224.387 272ZM256.387 320H192.387C136.012 320 89.824 361.791 82 416H366.773C358.949 361.791 312.762 320 256.387 320Z" class="fa-primary"/></svg>

<svg xmlns="http://www.w3.org/2000/svg" viewBox="0 0 448 512"><!--! Font Awesome Pro 6.3.0 by @fontawesome - https://fontawesome.com License - https://fontawesome.com/license (Commercial License) Copyright 2023 Fonticons, Inc. --><defs><style>.fa-secondary{opacity:.4}</style></defs><path class="fa-primary" d="M224 272c39.77 0 72-32.24 72-72C296 160.2 263.8 128 224 128C184.2 128 152 160.2 152 200C152 239.8 184.2 272 224 272zM256 320H192c-56.38 0-102.6 41.79-110.4 96h284.8C358.6 361.8 312.4 320 256 320z"/><path class="fa-secondary" d="M384 32H64C28.65 32 0 60.65 0 96v320c0 35.35 28.65 64 64 64h320c35.35 0 64-28.65 64-64V96C448 60.65 419.3 32 384 32zM224 128c39.77 0 72 32.23 72 72c0 39.76-32.23 72-72 72c-39.76 0-72-32.24-72-72C152 160.2 184.2 128 224 128zM81.61 416C89.44 361.8 135.6 320 192 320h64c56.38 0 102.6 41.79 110.4 96H81.61z"/></svg>
